assets/img/steps/i-7.svg

<svg width="56" height="56" viewBox="0 0 56 56" fill="none" xmlns="http://www.w3.org/2000/svg">
<path d="M30.6298 48.4993C30.5282 48.4994 30.4276 48.4794 30.3337 48.4405C30.2398 48.4016 30.1545 48.3446 30.0827 48.2726L26.7129 44.9025C26.6389 44.8311 26.58 44.7456 26.5394 44.6512C26.4988 44.5568 26.4775 44.4552 26.4766 44.3524C26.4757 44.2496 26.4953 44.1477 26.5342 44.0526C26.5731 43.9575 26.6306 43.871 26.7033 43.7984C26.7759 43.7257 26.8624 43.6682 26.9575 43.6293C27.0526 43.5904 27.1546 43.5708 27.2573 43.5717C27.3601 43.5726 27.4617 43.5939 27.5561 43.6345C27.6505 43.6751 27.736 43.734 27.8074 43.808L31.1772 47.1778C31.2855 47.2861 31.3593 47.424 31.3891 47.5742C31.419 47.7243 31.4037 47.88 31.3451 48.0215C31.2865 48.1629 31.1873 48.2838 31.0599 48.3689C30.9326 48.4539 30.7829 48.4993 30.6298 48.4993Z" fill="#EE794F"/>
<path d="M41.2493 46.1855C41.044 46.1855 40.8471 46.267 40.7019 46.4122C40.5568 46.5573 40.4752 46.7542 40.4752 46.9595V53.6782C40.4752 53.8835 40.3937 54.0804 40.2485 54.2255C40.1033 54.3707 39.9065 54.4522 39.7012 54.4522H2.32305C2.11776 54.4522 1.92088 54.3707 1.77572 54.2255C1.63056 54.0804 1.54901 53.8835 1.54901 53.6782V14.661H13.8875C14.0928 14.661 14.2897 14.5794 14.4349 14.4342C14.58 14.2891 14.6616 14.0922 14.6616 13.8869V1.54809H39.7012C39.9065 1.54809 40.1033 1.62964 40.2485 1.7748C40.3937 1.91996 40.4752 2.11684 40.4752 2.32213V20.5697C40.4752 20.775 40.5568 20.9718 40.7019 21.117C40.8471 21.2622 41.044 21.3437 41.2493 21.3437C41.4545 21.3437 41.6514 21.2622 41.7966 21.117C41.9417 20.9718 42.0233 20.775 42.0233 20.5697V2.32213C42.0226 1.70649 41.7777 1.11627 41.3424 0.680952C40.907 0.245629 40.3168 0.000741129 39.7012 3.68923e-06H14.5294C14.2244 -0.000541653 13.9224 0.0593775 13.6407 0.176295C13.359 0.293212 13.1033 0.464808 12.8884 0.68116L0.681156 12.8859C0.246922 13.3219 0.0021611 13.9116 0 14.5269V53.6779C0.00073744 54.2935 0.245627 54.8837 0.680949 55.3191C1.11627 55.7544 1.70648 55.9993 2.32212 56H39.7012C40.3168 55.9993 40.907 55.7544 41.3424 55.3191C41.7777 54.8837 42.0226 54.2935 42.0233 53.6779V46.9592C42.0232 46.754 41.9416 46.5572 41.7965 46.4121C41.6513 46.267 41.4545 46.1855 41.2493 46.1855ZM13.1135 2.64289V13.1129H2.6435L13.1135 2.64289Z" fill="#354BAC"/>
<path d="M54.1292 22.2642L52.7229 20.8582C51.8313 19.9685 50.6232 19.4688 49.3636 19.4688C48.104 19.4688 46.8958 19.9685 46.0042 20.8582L29.0819 37.7806C28.582 38.2809 28.208 38.8928 27.9908 39.5659L25.5185 47.2443C25.4333 47.5094 25.4118 47.7908 25.4559 48.0657C25.4999 48.3406 25.6081 48.6012 25.7718 48.8264C25.9355 49.0516 26.15 49.235 26.3979 49.3617C26.6458 49.4884 26.9201 49.5549 27.1985 49.5556C27.3835 49.5555 27.5675 49.5265 27.7437 49.4699L35.4222 46.9976C36.0951 46.7797 36.707 46.4057 37.2077 45.9062L51.3965 31.7158L54.1286 28.9838C55.0185 28.0921 55.5183 26.8839 55.5184 25.6241C55.5185 24.3644 55.0189 23.156 54.1292 22.2642ZM36.6594 44.263L30.7237 38.3277L43.8205 25.2325L49.7562 31.1678L36.6594 44.263ZM34.9457 45.5226L27.2672 47.9948C27.2287 48.0073 27.1875 48.0088 27.1481 47.9993C27.1087 47.9898 27.0728 47.9697 27.0441 47.9411C27.0155 47.9125 26.9953 47.8765 26.9857 47.8372C26.9762 47.7978 26.9777 47.7566 26.9901 47.7181L29.4627 40.0396C29.5245 39.8517 29.6056 39.6706 29.7045 39.4993L35.4853 45.2798C35.3141 45.3787 35.1333 45.4601 34.9457 45.5226ZM53.0338 27.8884L50.8485 30.0733L44.9153 24.1377L47.1006 21.9527C47.7017 21.353 48.5162 21.0161 49.3653 21.0161C50.2144 21.0161 51.0289 21.353 51.63 21.9527L53.0363 23.3587C53.6357 23.9601 53.9722 24.7747 53.9719 25.6238C53.9716 26.473 53.6346 27.2874 53.0347 27.8884H53.0338Z" fill="#354BAC"/>
<path d="M26.2841 33.2792V31.2311C26.2841 30.8595 26.1607 30.4984 25.9334 30.2045C25.7061 29.9105 25.3876 29.7003 25.028 29.6068L23.2681 29.1535L24.1923 27.5878C24.381 27.2676 24.4579 26.8937 24.4109 26.525C24.364 26.1562 24.1958 25.8136 23.9329 25.5509L22.4842 24.1022C22.2211 23.8395 21.8784 23.6716 21.5096 23.6248C21.1408 23.5779 20.767 23.6548 20.4466 23.8433L18.8821 24.7672L18.4282 23.0067C18.3351 22.647 18.1251 22.3283 17.8312 22.1008C17.5373 21.8734 17.1762 21.7499 16.8046 21.75H14.7565C14.3846 21.75 14.0233 21.8735 13.7293 22.1011C13.4353 22.3288 13.2253 22.6477 13.1322 23.0077L12.6789 24.7672L11.1129 23.8427C10.7926 23.6544 10.4188 23.5778 10.0502 23.6248C9.68162 23.6718 9.33906 23.8398 9.07624 24.1025L7.62817 25.5509C7.36519 25.8137 7.19702 26.1565 7.15011 26.5253C7.1032 26.8942 7.18021 27.2681 7.36902 27.5884L8.2926 29.1535L6.53181 29.6068C6.17212 29.7003 5.85361 29.9104 5.62623 30.2044C5.39884 30.4983 5.27545 30.8594 5.27539 31.2311V33.2792C5.27532 33.651 5.39883 34.0123 5.62649 34.3062C5.85415 34.6002 6.17305 34.8102 6.53305 34.9031L8.2926 35.3567L7.36871 36.9218C7.18013 37.2421 7.10326 37.616 7.15016 37.9847C7.19707 38.3535 7.36509 38.6962 7.62786 38.9591L9.07655 40.4078C9.33977 40.6702 9.68252 40.8379 10.0512 40.8847C10.4199 40.9315 10.7937 40.8548 11.1141 40.6666L12.6789 39.743L13.1325 41.5029C13.2256 41.8628 13.4356 42.1816 13.7296 42.4092C14.0235 42.6367 14.3847 42.7602 14.7565 42.7603H16.8021C17.1739 42.7602 17.5352 42.6366 17.8291 42.4089C18.1231 42.1812 18.333 41.8623 18.426 41.5023L18.8796 39.743L20.4454 40.6672C20.7657 40.8555 21.1395 40.9322 21.508 40.8852C21.8766 40.8382 22.2192 40.6702 22.482 40.4075L23.9304 38.9591C24.1933 38.6962 24.3614 38.3534 24.4083 37.9846C24.4552 37.6158 24.3782 37.2418 24.1895 36.9215L23.2656 35.3567L25.0261 34.9028C25.3862 34.81 25.7051 34.6001 25.9328 34.3062C26.1606 34.0123 26.2841 33.651 26.2841 33.2792ZM24.736 33.2792C24.7359 33.3075 24.7264 33.3349 24.7091 33.3573C24.6919 33.3797 24.6677 33.3958 24.6403 33.403L21.8848 34.1133C21.7686 34.1432 21.6609 34.1998 21.5703 34.2785C21.4797 34.3571 21.4087 34.4558 21.3627 34.5667C21.3168 34.6775 21.2973 34.7976 21.3058 34.9173C21.3142 35.037 21.3503 35.1531 21.4114 35.2564L22.8579 37.7067C22.8724 37.7313 22.8784 37.7601 22.8748 37.7884C22.8712 37.8168 22.8583 37.8432 22.8381 37.8634L21.39 39.3118C21.3699 39.3321 21.3436 39.3451 21.3152 39.3489C21.2869 39.3526 21.2581 39.3469 21.2333 39.3325L18.7824 37.8857C18.6791 37.8246 18.563 37.7885 18.4433 37.7801C18.3236 37.7716 18.2036 37.7911 18.0927 37.837C17.9818 37.883 17.8832 37.954 17.8045 38.0446C17.7258 38.1352 17.6692 38.2429 17.6393 38.3591L16.9297 41.1146C16.9225 41.1424 16.9063 41.1671 16.8836 41.1847C16.8609 41.2023 16.833 41.2118 16.8043 41.2119H14.7562C14.7278 41.2116 14.7003 41.202 14.678 41.1846C14.6556 41.1672 14.6396 41.143 14.6323 41.1156L13.922 38.36C13.8921 38.2438 13.8356 38.1361 13.7569 38.0455C13.6782 37.9549 13.5795 37.8839 13.4687 37.838C13.3578 37.7921 13.2378 37.7726 13.1181 37.781C12.9984 37.7894 12.8823 37.8256 12.7789 37.8866L10.3271 39.3325C10.3023 39.3469 10.2735 39.3528 10.2451 39.3492C10.2167 39.3457 10.1902 39.3328 10.1698 39.3127L8.72111 37.8643C8.70127 37.8443 8.68853 37.8183 8.68484 37.7903C8.68115 37.7624 8.68671 37.734 8.70068 37.7095L10.1472 35.2586C10.2082 35.1552 10.2444 35.0391 10.2528 34.9194C10.2612 34.7997 10.2417 34.6797 10.1958 34.5689C10.1499 34.458 10.0788 34.3593 9.98825 34.2806C9.89765 34.2019 9.79 34.1454 9.6738 34.1155L6.91821 33.4055C6.89074 33.3984 6.86638 33.3824 6.84892 33.36C6.83145 33.3376 6.82186 33.3101 6.82162 33.2817V31.2336C6.82153 31.205 6.8309 31.1772 6.84827 31.1545C6.86563 31.1318 6.89 31.1155 6.9176 31.1082L9.67318 30.3982C9.78934 30.3683 9.89694 30.3117 9.9875 30.233C10.0781 30.1544 10.1491 30.0557 10.195 29.9449C10.2409 29.8341 10.2604 29.7141 10.252 29.5945C10.2436 29.4748 10.2075 29.3587 10.1466 29.2554L8.70037 26.8048C8.68593 26.7801 8.68008 26.7513 8.68372 26.7229C8.68736 26.6945 8.70029 26.6681 8.72049 26.6478L10.1686 25.1997C10.1888 25.1796 10.215 25.1667 10.2433 25.163C10.2715 25.1594 10.3002 25.1651 10.3249 25.1793L12.7758 26.6261C12.8792 26.6872 12.9953 26.7233 13.115 26.7317C13.2347 26.7401 13.3548 26.7206 13.4657 26.6746C13.5765 26.6287 13.6752 26.5576 13.7539 26.467C13.8325 26.3763 13.889 26.2687 13.919 26.1524L14.6292 23.3968C14.6363 23.3693 14.6523 23.345 14.6747 23.3275C14.6971 23.31 14.7247 23.3004 14.7531 23.3003H16.8021C16.8304 23.3005 16.8579 23.31 16.8802 23.3273C16.9026 23.3446 16.9187 23.3689 16.9259 23.3962L17.6359 26.1518C17.6658 26.268 17.7223 26.3757 17.801 26.4664C17.8797 26.557 17.9783 26.6281 18.0892 26.674C18.2001 26.72 18.3201 26.7395 18.4398 26.7311C18.5595 26.7227 18.6757 26.6865 18.779 26.6255L21.229 25.1793C21.2536 25.1646 21.2825 25.1586 21.311 25.1621C21.3395 25.1656 21.366 25.1785 21.3863 25.1988L22.8347 26.6472C22.8545 26.6673 22.8671 26.6933 22.8708 26.7212C22.8744 26.7492 22.8688 26.7775 22.8548 26.802L21.408 29.2532C21.347 29.3566 21.3109 29.4726 21.3025 29.5923C21.2941 29.712 21.3136 29.8319 21.3595 29.9428C21.4054 30.0536 21.4765 30.1522 21.567 30.2309C21.6576 30.3095 21.7652 30.3661 21.8814 30.396L24.6369 31.1057C24.6646 31.1131 24.689 31.1295 24.7064 31.1522C24.7238 31.1749 24.7333 31.2028 24.7332 31.2314L24.736 33.2792Z" fill="#EE794F"/>
<path d="M15.7791 28.3408C15.005 28.3408 14.2483 28.5704 13.6046 29.0004C12.961 29.4305 12.4594 30.0418 12.1631 30.757C11.8669 31.4722 11.7894 32.2591 11.9405 33.0183C12.0915 33.7776 12.4643 34.475 13.0117 35.0223C13.5591 35.5697 14.2565 35.9424 15.0157 36.0934C15.775 36.2444 16.5619 36.1668 17.2771 35.8705C17.9922 35.5742 18.6035 35.0725 19.0335 34.4289C19.4635 33.7852 19.693 33.0285 19.693 32.2544C19.6918 31.2167 19.2791 30.2219 18.5453 29.4882C17.8116 28.7545 16.8167 28.3419 15.7791 28.3408ZM15.7791 34.6201C15.3112 34.6201 14.8538 34.4814 14.4647 34.2214C14.0757 33.9615 13.7725 33.592 13.5934 33.1597C13.4143 32.7274 13.3675 32.2517 13.4588 31.7928C13.5501 31.3339 13.7754 30.9124 14.1062 30.5815C14.4371 30.2506 14.8586 30.0253 15.3176 29.934C15.7765 29.8428 16.2522 29.8896 16.6844 30.0687C17.1167 30.2477 17.4862 30.551 17.7462 30.94C18.0061 31.3291 18.1449 31.7865 18.1449 32.2544C18.1443 32.8817 17.8949 33.4831 17.4513 33.9267C17.0078 34.3703 16.4064 34.6198 15.7791 34.6205V34.6201Z" fill="#354BAC"/>
<path d="M33.1448 12.7196H22.5612C22.3559 12.7196 22.159 12.638 22.0138 12.4929C21.8687 12.3477 21.7871 12.1508 21.7871 11.9455C21.7871 11.7403 21.8687 11.5434 22.0138 11.3982C22.159 11.2531 22.3559 11.1715 22.5612 11.1715H33.1448C33.3501 11.1715 33.5469 11.2531 33.6921 11.3982C33.8373 11.5434 33.9188 11.7403 33.9188 11.9455C33.9188 12.1508 33.8373 12.3477 33.6921 12.4929C33.5469 12.638 33.3501 12.7196 33.1448 12.7196Z" fill="#EE794F"/>
<path d="M33.1448 17.4735H22.5612C22.3559 17.4735 22.159 17.3919 22.0138 17.2468C21.8687 17.1016 21.7871 16.9047 21.7871 16.6995C21.7871 16.4942 21.8687 16.2973 22.0138 16.1521C22.159 16.007 22.3559 15.9254 22.5612 15.9254H33.1448C33.3501 15.9254 33.5469 16.007 33.6921 16.1521C33.8373 16.2973 33.9188 16.4942 33.9188 16.6995C33.9188 16.9047 33.8373 17.1016 33.6921 17.2468C33.5469 17.3919 33.3501 17.4735 33.1448 17.4735Z" fill="#EE794F"/>
</svg>

<svg width="56" height="56" fill="none" xmlns="http://www.w3.org/2000/svg"><path d="M30.63 48.5a.772.772 0 01-.547-.227l-3.37-3.37a.774.774 0 111.094-1.095l3.37 3.37a.774.774 0 01-.547 1.321z" fill="#EE794F"/><path d="M41.25 46.185a.774.774 0 00-.775.774v6.72a.774.774 0 01-.774.773H2.323a.774.774 0 01-.774-.774V14.661h12.338a.774.774 0 00.775-.774V1.548h25.04a.774.774 0 01.773.774V20.57a.774.774 0 001.548 0V2.322A2.325 2.325 0 0039.701 0H14.53a2.307 2.307 0 00-1.64.681L.68 12.886A2.337 2.337 0 000 14.526v39.152A2.325 2.325 0 002.322 56h37.38a2.325 2.325 0 002.321-2.322v-6.719a.774.774 0 00-.774-.774zM13.113 2.643v10.47H2.644l10.47-10.47z" fill="#354BAC"/><path d="M54.13 22.264l-1.407-1.406a4.756 4.756 0 00-6.719 0L29.082 37.781c-.5.5-.874 1.112-1.091 1.785l-2.473 7.678a1.769 1.769 0 002.226 2.226l7.678-2.472a4.484 4.484 0 001.786-1.092l14.189-14.19 2.732-2.732a4.757 4.757 0 000-6.72zM36.66 44.263l-5.936-5.935L43.82 25.232l5.935 5.936L36.66 44.263zm-1.714 1.26l-7.679 2.472a.22.22 0 01-.281-.158.22.22 0 01.004-.119l2.473-7.678c.061-.188.143-.37.241-.54l5.781 5.78a2.93 2.93 0 01-.54.243zm18.088-17.635l-2.185 2.185-5.934-5.935 2.186-2.185a3.207 3.207 0 014.529 0l1.406 1.406a3.207 3.207 0 01-.001 4.53h-.001z" fill="#354BAC"/><path d="M26.284 33.28V31.23a1.678 1.678 0 00-1.256-1.624l-1.76-.453.924-1.566a1.676 1.676 0 00-.26-2.037l-1.448-1.449a1.678 1.678 0 00-2.037-.259l-1.565.924-.454-1.76a1.677 1.677 0 00-1.623-1.257h-2.048a1.678 1.678 0 00-1.625 1.258l-.453 1.76-1.566-.925a1.678 1.678 0 00-2.037.26L7.628 25.55a1.677 1.677 0 00-.259 2.037l.924 1.566-1.761.453a1.679 1.679 0 00-1.257 1.624v2.048a1.677 1.677 0 001.258 1.624l1.76.454-.924 1.565a1.678 1.678 0 00.259 2.037l1.449 1.449a1.68 1.68 0 002.037.259l1.565-.924.454 1.76a1.677 1.677 0 001.624 1.257h2.045a1.678 1.678 0 001.624-1.258l.454-1.759 1.565.924a1.678 1.678 0 002.037-.26l1.448-1.448a1.677 1.677 0 00.26-2.038l-.924-1.564 1.76-.454a1.676 1.676 0 001.258-1.624zm-1.548 0a.128.128 0 01-.096.123l-2.755.71a.774.774 0 00-.474 1.143l1.447 2.45a.13.13 0 01-.02.157l-1.448 1.449a.13.13 0 01-.157.02l-2.45-1.446a.772.772 0 00-1.144.473l-.71 2.756a.13.13 0 01-.125.097h-2.048a.13.13 0 01-.124-.096l-.71-2.756a.774.774 0 00-1.143-.473l-2.452 1.446a.13.13 0 01-.157-.02L8.72 37.864a.129.129 0 01-.02-.154l1.446-2.451a.774.774 0 00-.473-1.144l-2.756-.71a.129.129 0 01-.096-.123v-2.048a.13.13 0 01.096-.126l2.755-.71a.773.773 0 00.474-1.143L8.7 26.805a.13.13 0 01.02-.157L10.17 25.2a.13.13 0 01.156-.02l2.45 1.446a.773.773 0 001.144-.474l.71-2.755a.129.129 0 01.124-.097h2.05a.129.129 0 01.123.096l.71 2.756a.775.775 0 001.143.473l2.45-1.446a.13.13 0 01.157.02l1.449 1.448a.13.13 0 01.02.155l-1.447 2.451a.774.774 0 00.473 1.143l2.756.71a.13.13 0 01.096.125l.003 2.048z" fill="#EE794F"/><path d="M15.78 28.34a3.915 3.915 0 100 7.83 3.915 3.915 0 000-7.83zm0 6.28a2.366 2.366 0 11-.001-4.732 2.366 2.366 0 010 4.732z" fill="#354BAC"/><path d="M33.145 12.72H22.56a.774.774 0 010-1.549h10.584a.774.774 0 010 1.549zM33.145 17.474H22.56a.774.774 0 010-1.549h10.584a.774.774 0 010 1.549z" fill="#EE794F"/></svg>
